X: 21
T: Sean Bui
Z: UPipes & harp
S: https://thesession.org/tunes/235#setting50381
R: jig
M: 6/8
L: 1/8
K: Dmaj
|:DAD AFA|BGB AFA|DAD AFA|B2 c d2 A|
DAD AFA|BGB AFA|dfd ecA |B2 c d2 A:||
dfd ecA|dcB AFA|dfd ecA|B2c d2A|
dfd ecA|dcB AFA|DAD AFA|B2c d2A|
dfd ecA|dcB AFA|dfd ecA|B2c dfg|
afd gec|dcB AFA|DAD AFA|B2c d3||

